X:1
T:Young Roddy McCorley
M:4/4
L:1/4
K:G
G/2-A/2| BA/2-B/2 DG/2-A/2| B3/2 A/2 G- G3/4 D/4| E G G A| G3B/2-c/2|\
 d d dB/2-d/2| e e d3/2 B/2| G E c B| A3B/2-c/2| d d dB/2-d/2| e e d3/2 B/2|\
 G E c B| A3 G/2A/2| B A/2B/2 DG/2-A/2| B3/2 A/2 G D/2D/2| E G G A|\
 G3 z|
